X:256
T:Gowan Hill 
C:Joe Buchanan's Scottish Tome - Page 305.3
I:305 3
C:J. Shand
R:Jig
Z:Carl Allison
L:1/8
M:6/8
K:A
"D7"E |"A" AGA cBA |"D" F2 d d2 F |"A" E2 c c2 E |"Bm" D2 B "E7"EFG |
"A"AGA cBA |"D" F2 d "B7"B2 A |"E" Gfe "E7"dcB |"A" A3 A :|
e | "A"a A A e|"F#m" f F F f| "A"ecA AcA |"Bm" Bcd "E7"efg |
"A"a2 A A2 e |"F#m" f2 F F2 f | "A"ecA "E7"BGE |"A" A3 A2 :|

